X: 11764
T: Elizabeth Adair
R: jig
M: 6/8
K: Dmajor
|:c/B/|A2 F d2 c|B2 G e2 d|cde ABc|d2 f a3|
A2 F d2 c|B2 G e/f/ed|cde ABc|d3 d2:|
|:f/g/|f2 g agf|gfg e2 g|f<af def|ecA A2 f/g/|
[1 f2 g agf|gfg e2 d|cde ABc|d3 d2:|
[2 f>ga g>ab|agf e/f/ed|cde ABc|d3 d2||

